storage/app/icons/phosphoricons/thin/jeep-thin.svg

<svg xmlns="http://www.w3.org/2000/svg" fill="currentColor" viewBox="0 0 256 256"><path d="M240 92h-12.77l-10-46.51a12.07 12.07 0 0 0-11.7-9.49H50.47a12.07 12.07 0 0 0-11.74 9.49L28.77 92H16a4 4 0 0 0 0 8h12v100a12 12 0 0 0 12 12h24a12 12 0 0 0 12-12v-28h104v28a12 12 0 0 0 12 12h24a12 12 0 0 0 12-12V100h12a4 4 0 0 0 0-8M46.56 47.16A4 4 0 0 1 50.47 44h155.06a4 4 0 0 1 3.91 3.16L219.05 92H37ZM68 200a4 4 0 0 1-4 4H40a4 4 0 0 1-4-4v-28h32Zm148 4h-24a4 4 0 0 1-4-4v-28h32v28a4 4 0 0 1-4 4m4-40h-72v-36a4 4 0 0 0-8 0v36h-24v-36a4 4 0 0 0-8 0v36H36v-64h184ZM60 132a8 8 0 1 1 8 8 8 8 0 0 1-8-8m120 0a8 8 0 1 1 8 8 8 8 0 0 1-8-8"/></svg>

<svg xmlns="http://www.w3.org/2000/svg" viewBox="0 0 256 256" fill="currentColor"><path d="M240,92H227.23l-10-46.51A12.07,12.07,0,0,0,205.53,36H50.47a12.07,12.07,0,0,0-11.74,9.49L28.77,92H16a4,4,0,0,0,0,8H28V200a12,12,0,0,0,12,12H64a12,12,0,0,0,12-12V172H180v28a12,12,0,0,0,12,12h24a12,12,0,0,0,12-12V100h12a4,4,0,0,0,0-8ZM46.56,47.16A4,4,0,0,1,50.47,44H205.53a4,4,0,0,1,3.91,3.16L219.05,92H37ZM68,200a4,4,0,0,1-4,4H40a4,4,0,0,1-4-4V172H68Zm148,4H192a4,4,0,0,1-4-4V172h32v28A4,4,0,0,1,216,204Zm4-40H148V128a4,4,0,0,0-8,0v36H116V128a4,4,0,0,0-8,0v36H36V100H220ZM60,132a8,8,0,1,1,8,8A8,8,0,0,1,60,132Zm120,0a8,8,0,1,1,8,8A8,8,0,0,1,180,132Z"/></svg>
